static/img/kroki/6176d42f881519d7a4cfa92a08b06366.svg

<?xml version="1.0" encoding="us-ascii" standalone="no"?><svg xmlns="http://www.w3.org/2000/svg" xmlns:xlink="http://www.w3.org/1999/xlink" contentStyleType="text/css" height="213px" preserveAspectRatio="none" style="width:337px;height:213px;" version="1.1" viewBox="0 0 337 213" width="337px" zoomAndPan="magnify"><defs/><g><!--class github_repo--><g id="elem_github_repo"><rect codeLine="23" fill="#3D176E" height="39.7891" id="github_repo" rx="2.5" ry="2.5" style="stroke:#000D19;stroke-width:0.5;" width="142" x="113" y="167.79"/><ellipse cx="128" cy="187.6845" fill="#ADD1B2" rx="11" ry="11" style="stroke:#181818;stroke-width:1.0;"/><path d="M130.9688,193.3252 Q130.3906,193.622 129.75,193.7627 Q129.1094,193.9189 128.4063,193.9189 Q125.9063,193.9189 124.5781,192.2783 Q123.2656,190.622 123.2656,187.497 Q123.2656,184.372 124.5781,182.7158 Q125.9063,181.0595 128.4063,181.0595 Q129.1094,181.0595 129.75,181.2158 Q130.4063,181.372 130.9688,181.6689 L130.9688,184.3877 Q130.3438,183.8095 129.75,183.5439 Q129.1563,183.2627 128.5313,183.2627 Q127.1875,183.2627 126.5,184.3408 Q125.8125,185.4033 125.8125,187.497 Q125.8125,189.5908 126.5,190.6689 Q127.1875,191.7314 128.5313,191.7314 Q129.1563,191.7314 129.75,191.4658 Q130.3438,191.1845 130.9688,190.6064 L130.9688,193.3252 Z " fill="#000000"/><text fill="#D9B8FF" font-family="Helvetica" font-size="17" lengthAdjust="spacing" textLength="100" x="147" y="193.5698">github_repo</text></g><!--class github_resource--><g id="elem_github_resource"><rect codeLine="26" fill="#3D176E" height="39.7891" id="github_resource" rx="2.5" ry="2.5" style="stroke:#000D19;stroke-width:0.5;" width="176" x="7" y="7"/><ellipse cx="22" cy="26.8945" fill="#ADD1B2" rx="11" ry="11" style="stroke:#181818;stroke-width:1.0;"/><path d="M24.9688,32.5352 Q24.3906,32.832 23.75,32.9727 Q23.1094,33.1289 22.4063,33.1289 Q19.9063,33.1289 18.5781,31.4883 Q17.2656,29.832 17.2656,26.707 Q17.2656,23.582 18.5781,21.9258 Q19.9063,20.2695 22.4063,20.2695 Q23.1094,20.2695 23.75,20.4258 Q24.4063,20.582 24.9688,20.8789 L24.9688,23.5977 Q24.3438,23.0195 23.75,22.7539 Q23.1563,22.4727 22.5313,22.4727 Q21.1875,22.4727 20.5,23.5508 Q19.8125,24.6133 19.8125,26.707 Q19.8125,28.8008 20.5,29.8789 Q21.1875,30.9414 22.5313,30.9414 Q23.1563,30.9414 23.75,30.6758 Q24.3438,30.3945 24.9688,29.8164 L24.9688,32.5352 Z " fill="#000000"/><text fill="#D9B8FF" font-family="Helvetica" font-size="17" lengthAdjust="spacing" textLength="134" x="41" y="32.7798">github_resource</text></g><!--class resource--><g id="elem_resource"><rect codeLine="29" fill="#3D176E" height="39.7891" id="resource" rx="2.5" ry="2.5" style="stroke:#000D19;stroke-width:0.5;" width="113" x="217.5" y="7"/><ellipse cx="232.5" cy="26.8945" fill="#ADD1B2" rx="11" ry="11" style="stroke:#181818;stroke-width:1.0;"/><path d="M235.4688,32.5352 Q234.8906,32.832 234.25,32.9727 Q233.6094,33.1289 232.9063,33.1289 Q230.4063,33.1289 229.0781,31.4883 Q227.7656,29.832 227.7656,26.707 Q227.7656,23.582 229.0781,21.9258 Q230.4063,20.2695 232.9063,20.2695 Q233.6094,20.2695 234.25,20.4258 Q234.9063,20.582 235.4688,20.8789 L235.4688,23.5977 Q234.8438,23.0195 234.25,22.7539 Q233.6563,22.4727 233.0313,22.4727 Q231.6875,22.4727 231,23.5508 Q230.3125,24.6133 230.3125,26.707 Q230.3125,28.8008 231,29.8789 Q231.6875,30.9414 233.0313,30.9414 Q233.6563,30.9414 234.25,30.6758 Q234.8438,30.3945 235.4688,29.8164 L235.4688,32.5352 Z " fill="#000000"/><text fill="#D9B8FF" font-family="Helvetica" font-size="17" lengthAdjust="spacing" textLength="71" x="251.5" y="32.7798">resource</text></g><!--reverse link github_resource to github_repo--><g id="link_github_resource_github_repo"><path codeLine="32" d="M114.5383,62.7532 C131.6383,93.2732 156.1,136.9 173.23,167.46 " fill="none" id="github_resource-backto-github_repo" style="stroke:#FFAF37;stroke-width:2.0;"/><polygon fill="none" points="105.74,47.05,109.3039,65.6859,119.7727,59.8204,105.74,47.05" style="stroke:#FFAF37;stroke-width:2.0;"/></g><!--reverse link resource to github_repo--><g id="link_resource_github_repo"><path codeLine="33" d="M254.2676,62.7114 C236.9776,93.2314 212.22,136.9 194.89,167.46 " fill="none" id="resource-backto-github_repo" style="stroke:#FFAF37;stroke-width:2.0;"/><polygon fill="none" points="263.14,47.05,249.0471,59.754,259.4881,65.6689,263.14,47.05" style="stroke:#FFAF37;stroke-width:2.0;"/></g><!--SRC=[XP3DJiCm48JlVWfBFKTAg22DnAL4Gd2f4EMEd7YTM4diQBsXAZ_l3g60N8UcrvbFCxDRQmaSkfxsl8Ek07JCDThq0aN7ruXsbzlM8bye9TGo3SrRQ-Wii14Ty3jeNu1qAKBYgTPbOy0vVk5PDw9iAhI3aOTuGc7SbmM6F2flXNDh8jJ5GE2DaLcnKYeamz35KYRf5KmmYnBm1udZM2PPY9ojchtxZzZgL-29_xID9PZCd5HyKxChHy8REJdqrp-vyK58gKt5BptjyR093U2Hlgs5jBkHLg9rVeqZGB2qxo6VN0NPIghqN_Z-5CpAyNMyqbGFnJD2R_aROn-XxEo09VZMiHQ2r-zH5FcfRCRw1000]--></g></svg>

<svg xmlns="http://www.w3.org/2000/svg" width="337" height="213" viewBox="0 0 337 213"><rect width="142" height="39.789" x="113" y="167.79" fill="#3D176E" rx="2.5" ry="2.5" style="stroke:#000d19;stroke-width:.5"/><circle cx="128" cy="187.685" r="11" fill="#ADD1B2" style="stroke:#181818;stroke-width:1"/><path d="M130.969 193.325q-.578.297-1.219.438-.64.156-1.344.156-2.5 0-3.828-1.64-1.312-1.657-1.312-4.782t1.312-4.781q1.328-1.656 3.828-1.656.703 0 1.344.156.656.156 1.219.453v2.719q-.625-.578-1.219-.844-.594-.281-1.219-.281-1.344 0-2.031 1.078-.687 1.062-.687 3.156t.687 3.172q.688 1.062 2.031 1.062.625 0 1.219-.265.594-.281 1.219-.86z"/><text x="147" y="193.57" fill="#D9B8FF" font-family="Helvetica" font-size="17" textLength="100">github_repo</text><rect width="176" height="39.789" x="7" y="7" fill="#3D176E" rx="2.5" ry="2.5" style="stroke:#000d19;stroke-width:.5"/><circle cx="22" cy="26.895" r="11" fill="#ADD1B2" style="stroke:#181818;stroke-width:1"/><path d="M24.969 32.535q-.578.297-1.219.438-.64.156-1.344.156-2.5 0-3.828-1.64-1.312-1.657-1.312-4.782t1.312-4.781q1.328-1.656 3.828-1.656.703 0 1.344.156.656.156 1.219.453v2.719q-.625-.578-1.219-.844-.594-.281-1.219-.281-1.343 0-2.031 1.078-.687 1.062-.687 3.156t.687 3.172q.688 1.062 2.031 1.062.625 0 1.219-.265.594-.281 1.219-.86z"/><text x="41" y="32.78" fill="#D9B8FF" font-family="Helvetica" font-size="17" textLength="134">github_resource</text><rect width="113" height="39.789" x="217.5" y="7" fill="#3D176E" rx="2.5" ry="2.5" style="stroke:#000d19;stroke-width:.5"/><circle cx="232.5" cy="26.895" r="11" fill="#ADD1B2" style="stroke:#181818;stroke-width:1"/><path d="M235.469 32.535q-.578.297-1.219.438-.64.156-1.344.156-2.5 0-3.828-1.64-1.312-1.657-1.312-4.782t1.312-4.781q1.328-1.656 3.828-1.656.703 0 1.344.156.656.156 1.219.453v2.719q-.625-.578-1.219-.844-.594-.281-1.219-.281-1.344 0-2.031 1.078-.687 1.062-.687 3.156t.687 3.172q.688 1.062 2.031 1.062.625 0 1.219-.265.594-.281 1.219-.86z"/><text x="251.5" y="32.78" fill="#D9B8FF" font-family="Helvetica" font-size="17" textLength="71">resource</text><g fill="none"><path d="M114.538 62.753c17.1 30.52 41.562 74.147 58.692 104.707" style="stroke:#ffaf37;stroke-width:2"/><path d="m105.74 47.05 3.564 18.636 10.469-5.866z" style="stroke:#ffaf37;stroke-width:2"/></g><g fill="none"><path d="M254.268 62.711c-17.29 30.52-42.048 74.189-59.378 104.749" style="stroke:#ffaf37;stroke-width:2"/><path d="m263.14 47.05-14.093 12.704 10.441 5.915z" style="stroke:#ffaf37;stroke-width:2"/></g></svg>
